www/assets/icons/hls.svg

<svg xmlns="http://www.w3.org/2000/svg" width="24" height="24" viewBox="0 0 24 24" fill='currentColor'><path d="M6.75 9h1.5v6h-1.5v-2.5h-2V15h-1.5V9h1.5v2h2zm10 6h3c.55 0 1-.45 1-1v-1.5c0-.55-.45-1-1-1h-2.5v-1h2v.5h1.5v-1c0-.55-.45-1-1-1h-3c-.55 0-1 .45-1 1v1.5c0 .55.45 1 1 1h2.5v1h-2V13h-1.5v1c0 .55.45 1 1 1m-2.5 0v-1.5h-2.5V9h-1.5v6z"/></svg>

<svg width="24" height="24" viewBox="0 0 24 24" xmlns="http://www.w3.org/2000/svg" fill='currentColor'><path d="M6.75 9H8.25V15H6.75V12.5H4.75V15H3.25V9H4.75V11H6.75V9ZM16.75 15H19.75C20.3 15 20.75 14.55 20.75 14V12.5C20.75 11.95 20.3 11.5 19.75 11.5H17.25V10.5H19.25V11H20.75V10C20.75 9.45 20.3 9 19.75 9H16.75C16.2 9 15.75 9.45 15.75 10V11.5C15.75 12.05 16.2 12.5 16.75 12.5H19.25V13.5H17.25V13H15.75V14C15.75 14.55 16.2 15 16.75 15ZM14.25 15V13.5H11.75V9H10.25V15H14.25Z"/></svg>
